X:0973
T:A Highland Dance.
M:C
L:1/8
Q:1/2=96
I: :: ::
Z:Jack Campin * www.campin.me.uk * 2009
K:G
d2G>d BBd>G|d2G>B AAe>A|d2Gd BBd>G|BBd>B AAe>A:|
BGG>B g2BG |BGGB  g2aA |BGGB g2fa |e2dB  AAeA :|

